X:1
T:Sollt’ Ich Meinem Gott, 87.87.87.78.77
T:Sollt’ Ich Meinem Gott, 87.87.87.78.77
T:Johann Schop, 1641
T:Public Domain Courtesy of the Cyber Hymnal™
C:Johann Schop, 1641
Z:Public Domain
Z:Courtesy of the Cyber Hymnal™
%%score ( 1 2 ) ( 3 4 )
L:1/8
M:3/4
K:Eb
V:1 treble 
V:2 treble 
V:3 bass 
V:4 bass 
V:1
 z2 [G,C]2 [G,C]2 | [CG]4 [Ec]2 | [D=B]4 [DB]2 | [Ec]2 [Ec]2 z2 | [Ge]4 [Gd]2 | [Ec]4 [DB]2 | %6
 [Ec]2 [D=A]4 | [DG]6 | z2 [G,C]2 [G,C]2 | [CG]4 [Ec]2 | [D=B]4 [DB]2 | [Ec]2 [Ec]2 z2 | %12
 [Ge]4 [Gd]2 | [Ec]4 [DB]2 | [Ec]2 [D=A]4 | [DG]6 | [EG]4 [EG]2 | [EB]4 [CE]2 | [B,D]4 [B,E]2 | %19
 [CF]2 [CF]2 z2 | [DF]4 [B,F]2 | [CF]4 [CA]2 | [CG]4 [CG]2 | [A,F]6 | [CG]4 [CG]2 | [DG]4 [DB]2 | %26
 [CA]4 [B,G]2 | [B,F]6 | C4 [=B,D]2 | [CE]4 D2 | [CE]4 [CF]2 | [=B,G]2 [B,G]2 z2 | [CE]4 [B,F]2 | %33
 [B,G]4 [B,F]2 | [B,G]4 [E=A]2 | [DB]6 | [Gc]4 [Gd]2 | [Ge]4 [Af]2 | [Gd]4 [Gd]2 | [=Ec]6 |] %40
V:2
 x6 | x6 | x6 | x6 | x6 | x6 | x6 | x6 | x6 | x6 | x6 | x6 | x6 | x6 | x6 | x6 | x6 | x6 | x6 | %19
 x6 | x6 | x6 | x6 | x6 | x6 | x6 | x6 | x6 | C4 x2 | x4 D2 | x6 | x6 | x6 | x6 | x6 | x6 | x6 | %37
 x6 | x6 | x6 |] %40
V:3
 z2 [C,E,]2 [C,E,]2 | [E,G,]4 [C,G,]2 | G,4 [G,,G,]2 | [C,G,]2 [C,G,]2 z2 | [C,C]4 [=B,,D]2 | %5
 [C,G,]4 G,2 | [C,G,]2 G,2 ^F,2 | [G,,=B,]6 | z2 [C,E,]2 [C,E,]2 | [E,G,]4 [C,G,]2 | G,4 [G,,G,]2 | %11
 [C,G,]2 [C,G,]2 z2 | [C,C]4 [=B,,D]2 | [C,G,]4 G,2 | [C,G,]2 (G,2 ^F,2) | [G,,=B,]6 | %16
 [E,B,]4 [C,C]2 | [G,,B,]4 [A,,A,]2 | [B,,F,]4 [G,,G,]2 | [F,,A,]2 [F,,A,]2 z2 | %20
 [B,,B,]4 [B,,D,]2 | [A,,F,]4 [F,,F,]2 | [C,F,]4 [C,=E,]2 | [F,,F,]6 | [C,E,]4 [C,E,]2 | %25
 [B,,D,]4 [G,,G,]2 | [A,,E,]4 [E,,E,]2 | [B,,D,]6 | [E,G,]4 [D,F,]2 | [C,G,]4 [=B,,G,]2 | %30
 [C,G,]4 [A,,F,]2 | [G,,D,]2 [G,,G,]2 z2 | [C,G,]4 [D,F,]2 | E,4 [B,,D,]2 | E,4 [C,E,]2 | %35
 [B,,F,]6 | [E,G,]4 [D,=B,]2 | [C,C]4 [F,C]2 | C2 =A,2 [G,=B,]2 | [C,G,]6 |] %40
V:4
 x6 | x6 | G,4 x2 | x6 | x6 | x4 G,2 | x2 D,4 | x6 | x6 | x6 | G,4 x2 | x6 | x6 | x4 G,2 | x2 D,4 | %15
 x6 | x6 | x6 | x6 | x6 | x6 | x6 | x6 | x6 | x6 | x6 | x6 | x6 | x6 | x6 | x6 | x6 | x6 | E,4 x2 | %34
 E,4 x2 | x6 | x6 | x6 | G,4 x2 | x6 |] %40

